dist/img/offices/floor-txt5.svg

<svg width="1073" height="125" viewBox="0 0 1073 125" fill="none" xmlns="http://www.w3.org/2000/svg">
<g clip-path="url(#clip0_187_1987)">
<g clip-path="url(#clip1_187_1987)">
<rect y="102" width="18" height="23" fill="#C01818" fill-opacity="0.8"/>
<rect x="18" y="52" width="132" height="73" fill="#C01818" fill-opacity="0.8"/>
<rect x="150" y="13" width="334" height="112" fill="#C01818" fill-opacity="0.8"/>
<rect x="484" y="29" width="387" height="96" fill="#C01818" fill-opacity="0.8"/>
<rect x="871" y="13" width="89" height="112" fill="#C01818" fill-opacity="0.8"/>
<rect x="960" width="52" height="125" fill="#C01818" fill-opacity="0.8"/>
<rect x="1012" y="51" width="61" height="74" fill="#C01818" fill-opacity="0.8"/>
<path d="M399.594 74.4062C401.802 74.4062 403.557 75.026 404.859 76.2656C406.172 77.5052 406.828 79.2031 406.828 81.3594C406.828 83.9115 406.042 85.875 404.469 87.25C402.896 88.625 400.646 89.3125 397.719 89.3125C395.177 89.3125 393.125 88.901 391.562 88.0781V83.9062C392.385 84.3438 393.344 84.7031 394.438 84.9844C395.531 85.2552 396.568 85.3906 397.547 85.3906C400.495 85.3906 401.969 84.1823 401.969 81.7656C401.969 79.4635 400.443 78.3125 397.391 78.3125C396.839 78.3125 396.229 78.3698 395.562 78.4844C394.896 78.5885 394.354 78.7031 393.938 78.8281L392.016 77.7969L392.875 66.1562H405.266V70.25H397.109L396.688 74.7344L397.234 74.625C397.87 74.4792 398.656 74.4062 399.594 74.4062ZM424.234 89H419.469V66.1562H432.562V70.125H424.234V76.0156H431.984V79.9688H424.234V89ZM441.422 89H436.656V64.6875H441.422V89ZM450.234 80.2344C450.234 81.9635 450.516 83.2708 451.078 84.1562C451.651 85.0417 452.578 85.4844 453.859 85.4844C455.13 85.4844 456.042 85.0469 456.594 84.1719C457.156 83.2865 457.438 81.974 457.438 80.2344C457.438 78.5052 457.156 77.2083 456.594 76.3438C456.031 75.4792 455.109 75.0469 453.828 75.0469C452.557 75.0469 451.641 75.4792 451.078 76.3438C450.516 77.1979 450.234 78.4948 450.234 80.2344ZM462.312 80.2344C462.312 83.0781 461.562 85.3021 460.062 86.9062C458.562 88.5104 456.474 89.3125 453.797 89.3125C452.12 89.3125 450.641 88.9479 449.359 88.2188C448.078 87.4792 447.094 86.4219 446.406 85.0469C445.719 83.6719 445.375 82.0677 445.375 80.2344C445.375 77.3802 446.12 75.1615 447.609 73.5781C449.099 71.9948 451.193 71.2031 453.891 71.2031C455.568 71.2031 457.047 71.5677 458.328 72.2969C459.609 73.026 460.594 74.0729 461.281 75.4375C461.969 76.8021 462.312 78.401 462.312 80.2344ZM470.047 80.2344C470.047 81.9635 470.328 83.2708 470.891 84.1562C471.464 85.0417 472.391 85.4844 473.672 85.4844C474.943 85.4844 475.854 85.0469 476.406 84.1719C476.969 83.2865 477.25 81.974 477.25 80.2344C477.25 78.5052 476.969 77.2083 476.406 76.3438C475.844 75.4792 474.922 75.0469 473.641 75.0469C472.37 75.0469 471.453 75.4792 470.891 76.3438C470.328 77.1979 470.047 78.4948 470.047 80.2344ZM482.125 80.2344C482.125 83.0781 481.375 85.3021 479.875 86.9062C478.375 88.5104 476.286 89.3125 473.609 89.3125C471.932 89.3125 470.453 88.9479 469.172 88.2188C467.891 87.4792 466.906 86.4219 466.219 85.0469C465.531 83.6719 465.188 82.0677 465.188 80.2344C465.188 77.3802 465.932 75.1615 467.422 73.5781C468.911 71.9948 471.005 71.2031 473.703 71.2031C475.38 71.2031 476.859 71.5677 478.141 72.2969C479.422 73.026 480.406 74.0729 481.094 75.4375C481.781 76.8021 482.125 78.401 482.125 80.2344ZM495.812 71.2031C496.458 71.2031 496.995 71.25 497.422 71.3438L497.062 75.8125C496.677 75.7083 496.208 75.6562 495.656 75.6562C494.135 75.6562 492.948 76.0469 492.094 76.8281C491.25 77.6094 490.828 78.7031 490.828 80.1094V89H486.062V71.5312H489.672L490.375 74.4688H490.609C491.151 73.4896 491.88 72.7031 492.797 72.1094C493.724 71.5052 494.729 71.2031 495.812 71.2031ZM507.359 82.375V78.4688H515.75V82.375H507.359ZM537.609 69.8594C535.786 69.8594 534.375 70.5469 533.375 71.9219C532.375 73.2865 531.875 75.1927 531.875 77.6406C531.875 82.7344 533.786 85.2812 537.609 85.2812C539.214 85.2812 541.156 84.8802 543.438 84.0781V88.1406C541.562 88.9219 539.469 89.3125 537.156 89.3125C533.833 89.3125 531.292 88.3073 529.531 86.2969C527.771 84.276 526.891 81.3802 526.891 77.6094C526.891 75.2344 527.323 73.1562 528.188 71.375C529.052 69.5833 530.292 68.2135 531.906 67.2656C533.531 66.3073 535.432 65.8281 537.609 65.8281C539.828 65.8281 542.057 66.3646 544.297 67.4375L542.734 71.375C541.88 70.9688 541.021 70.6146 540.156 70.3125C539.292 70.0104 538.443 69.8594 537.609 69.8594ZM559.031 89L558.109 86.625H557.984C557.182 87.6354 556.354 88.3385 555.5 88.7344C554.656 89.1198 553.552 89.3125 552.188 89.3125C550.51 89.3125 549.188 88.8333 548.219 87.875C547.26 86.9167 546.781 85.5521 546.781 83.7812C546.781 81.9271 547.427 80.5625 548.719 79.6875C550.021 78.8021 551.979 78.3125 554.594 78.2188L557.625 78.125V77.3594C557.625 75.5885 556.719 74.7031 554.906 74.7031C553.51 74.7031 551.87 75.125 549.984 75.9688L548.406 72.75C550.417 71.6979 552.646 71.1719 555.094 71.1719C557.438 71.1719 559.234 71.6823 560.484 72.7031C561.734 73.724 562.359 75.276 562.359 77.3594V89H559.031ZM557.625 80.9062L555.781 80.9688C554.396 81.0104 553.365 81.2604 552.688 81.7188C552.01 82.1771 551.672 82.875 551.672 83.8125C551.672 85.1562 552.443 85.8281 553.984 85.8281C555.089 85.8281 555.969 85.5104 556.625 84.875C557.292 84.2396 557.625 83.3958 557.625 82.3438V80.9062ZM576.938 75.1094H572.812V89H568.047V75.1094H565.422V72.8125L568.047 71.5312V70.25C568.047 68.2604 568.536 66.8073 569.516 65.8906C570.495 64.974 572.062 64.5156 574.219 64.5156C575.865 64.5156 577.328 64.7604 578.609 65.25L577.391 68.75C576.432 68.4479 575.547 68.2969 574.734 68.2969C574.057 68.2969 573.568 68.5 573.266 68.9062C572.964 69.3021 572.812 69.8125 572.812 70.4375V71.5312H576.938V75.1094ZM586.922 74.5938C585.911 74.5938 585.12 74.9167 584.547 75.5625C583.974 76.1979 583.646 77.1042 583.562 78.2812H590.25C590.229 77.1042 589.922 76.1979 589.328 75.5625C588.734 74.9167 587.932 74.5938 586.922 74.5938ZM587.594 89.3125C584.781 89.3125 582.583 88.5365 581 86.9844C579.417 85.4323 578.625 83.2344 578.625 80.3906C578.625 77.4635 579.354 75.2031 580.812 73.6094C582.281 72.0052 584.307 71.2031 586.891 71.2031C589.359 71.2031 591.281 71.9062 592.656 73.3125C594.031 74.7188 594.719 76.6615 594.719 79.1406V81.4531H583.453C583.505 82.8073 583.906 83.8646 584.656 84.625C585.406 85.3854 586.458 85.7656 587.812 85.7656C588.865 85.7656 589.859 85.6562 590.797 85.4375C591.734 85.2188 592.714 84.8698 593.734 84.3906V88.0781C592.901 88.4948 592.01 88.8021 591.062 89C590.115 89.2083 588.958 89.3125 587.594 89.3125ZM603.266 85.6406C602.724 87.7448 601.807 90.2396 600.516 93.125H597.078C597.755 90.3542 598.281 87.7396 598.656 85.2812H603.031L603.266 85.6406ZM621.406 76.9062H623C624.49 76.9062 625.604 76.6146 626.344 76.0312C627.083 75.4375 627.453 74.5781 627.453 73.4531C627.453 72.3177 627.141 71.4792 626.516 70.9375C625.901 70.3958 624.932 70.125 623.609 70.125H621.406V76.9062ZM632.344 73.2812C632.344 75.7396 631.573 77.6198 630.031 78.9219C628.5 80.224 626.318 80.875 623.484 80.875H621.406V89H616.562V66.1562H623.859C626.63 66.1562 628.734 66.7552 630.172 67.9531C631.62 69.1406 632.344 70.9167 632.344 73.2812ZM640.078 80.2344C640.078 81.9635 640.359 83.2708 640.922 84.1562C641.495 85.0417 642.422 85.4844 643.703 85.4844C644.974 85.4844 645.885 85.0469 646.438 84.1719C647 83.2865 647.281 81.974 647.281 80.2344C647.281 78.5052 647 77.2083 646.438 76.3438C645.875 75.4792 644.953 75.0469 643.672 75.0469C642.401 75.0469 641.484 75.4792 640.922 76.3438C640.359 77.1979 640.078 78.4948 640.078 80.2344ZM652.156 80.2344C652.156 83.0781 651.406 85.3021 649.906 86.9062C648.406 88.5104 646.318 89.3125 643.641 89.3125C641.964 89.3125 640.484 88.9479 639.203 88.2188C637.922 87.4792 636.938 86.4219 636.25 85.0469C635.562 83.6719 635.219 82.0677 635.219 80.2344C635.219 77.3802 635.964 75.1615 637.453 73.5781C638.943 71.9948 641.036 71.2031 643.734 71.2031C645.411 71.2031 646.891 71.5677 648.172 72.2969C649.453 73.026 650.438 74.0729 651.125 75.4375C651.812 76.8021 652.156 78.401 652.156 80.2344ZM659.891 80.2344C659.891 81.9635 660.172 83.2708 660.734 84.1562C661.307 85.0417 662.234 85.4844 663.516 85.4844C664.786 85.4844 665.698 85.0469 666.25 84.1719C666.812 83.2865 667.094 81.974 667.094 80.2344C667.094 78.5052 666.812 77.2083 666.25 76.3438C665.688 75.4792 664.766 75.0469 663.484 75.0469C662.214 75.0469 661.297 75.4792 660.734 76.3438C660.172 77.1979 659.891 78.4948 659.891 80.2344ZM671.969 80.2344C671.969 83.0781 671.219 85.3021 669.719 86.9062C668.219 88.5104 666.13 89.3125 663.453 89.3125C661.776 89.3125 660.297 88.9479 659.016 88.2188C657.734 87.4792 656.75 86.4219 656.062 85.0469C655.375 83.6719 655.031 82.0677 655.031 80.2344C655.031 77.3802 655.776 75.1615 657.266 73.5781C658.755 71.9948 660.849 71.2031 663.547 71.2031C665.224 71.2031 666.703 71.5677 667.984 72.2969C669.266 73.026 670.25 74.0729 670.938 75.4375C671.625 76.8021 671.969 78.401 671.969 80.2344ZM680.672 89H675.906V64.6875H680.672V89Z" fill="white"/>
</g>
</g>
<defs>
<clipPath id="clip0_187_1987">
<rect width="1073" height="125" fill="white"/>
</clipPath>
<clipPath id="clip1_187_1987">
<rect width="1073" height="125" fill="white"/>
</clipPath>
</defs>
</svg>

<svg width="1073" height="125" fill="none" xmlns="http://www.w3.org/2000/svg"><g clip-path="url(#clip0_187_1987)"><g clip-path="url(#clip1_187_1987)"><path fill="#C01818" fill-opacity=".8" d="M0 102h18v23H0zm18-50h132v73H18zm132-39h334v112H150zm334 16h387v96H484zm387-16h89v112h-89zm89-13h52v125h-52zm52 51h61v74h-61z"/><path d="M399.594 74.406c2.208 0 3.963.62 5.265 1.86 1.313 1.24 1.969 2.937 1.969 5.093 0 2.553-.786 4.516-2.359 5.891s-3.823 2.063-6.75 2.063c-2.542 0-4.594-.412-6.157-1.235v-4.172c.823.438 1.782.797 2.876 1.078 1.093.271 2.13.407 3.109.407 2.948 0 4.422-1.209 4.422-3.625 0-2.303-1.526-3.454-4.578-3.454-.552 0-1.162.058-1.829.172-.666.105-1.208.22-1.624.344l-1.922-1.031.859-11.64h12.391v4.093h-8.157l-.421 4.484.546-.109c.636-.146 1.422-.219 2.36-.219zM424.234 89h-4.765V66.156h13.093v3.969h-8.328v5.89h7.75v3.954h-7.75V89zm17.188 0h-4.766V64.687h4.766V89zm8.812-8.766c0 1.73.282 3.037.844 3.922.573.886 1.5 1.328 2.781 1.328 1.271 0 2.183-.437 2.735-1.312.562-.885.844-2.198.844-3.938 0-1.729-.282-3.026-.844-3.89-.563-.865-1.485-1.297-2.766-1.297-1.271 0-2.187.432-2.75 1.297-.562.854-.844 2.15-.844 3.89zm12.078 0c0 2.844-.75 5.068-2.25 6.672s-3.588 2.406-6.265 2.406c-1.677 0-3.156-.364-4.438-1.093-1.281-.74-2.265-1.797-2.953-3.172-.687-1.375-1.031-2.98-1.031-4.813 0-2.854.745-5.072 2.234-6.656 1.49-1.583 3.584-2.375 6.282-2.375 1.677 0 3.156.365 4.437 1.094 1.281.729 2.266 1.776 2.953 3.14.688 1.365 1.031 2.964 1.031 4.797zm7.735 0c0 1.73.281 3.037.844 3.922.573.886 1.5 1.328 2.781 1.328 1.271 0 2.182-.437 2.734-1.312.563-.885.844-2.198.844-3.938 0-1.729-.281-3.026-.844-3.89-.562-.865-1.484-1.297-2.765-1.297-1.271 0-2.188.432-2.75 1.297-.563.854-.844 2.15-.844 3.89zm12.078 0c0 2.844-.75 5.068-2.25 6.672s-3.589 2.406-6.266 2.406c-1.677 0-3.156-.364-4.437-1.093-1.281-.74-2.266-1.797-2.953-3.172-.688-1.375-1.031-2.98-1.031-4.813 0-2.854.744-5.072 2.234-6.656 1.489-1.583 3.583-2.375 6.281-2.375 1.677 0 3.156.365 4.438 1.094 1.281.729 2.265 1.776 2.953 3.14.687 1.365 1.031 2.964 1.031 4.797zm13.687-9.03c.646 0 1.183.046 1.61.14l-.36 4.469c-.385-.105-.854-.157-1.406-.157-1.521 0-2.708.39-3.562 1.172-.844.781-1.266 1.875-1.266 3.281V89h-4.766V71.531h3.61l.703 2.938h.234a6.526 6.526 0 012.188-2.36 5.415 5.415 0 013.015-.906zm11.547 11.171v-3.906h8.391v3.906h-8.391zm30.25-12.516c-1.823 0-3.234.688-4.234 2.063-1 1.365-1.5 3.27-1.5 5.719 0 5.093 1.911 7.64 5.734 7.64 1.605 0 3.547-.4 5.829-1.203v4.063c-1.876.78-3.969 1.171-6.282 1.171-3.323 0-5.864-1.005-7.625-3.015-1.76-2.021-2.64-4.917-2.64-8.688 0-2.375.432-4.453 1.297-6.234.864-1.792 2.104-3.162 3.718-4.11 1.625-.958 3.526-1.437 5.703-1.437 2.219 0 4.448.537 6.688 1.61l-1.563 3.937a25.82 25.82 0 00-2.578-1.063 7.686 7.686 0 00-2.547-.453zM559.031 89l-.922-2.375h-.125c-.802 1.01-1.63 1.713-2.484 2.11-.844.385-1.948.578-3.312.578-1.678 0-3-.48-3.969-1.438-.959-.958-1.438-2.323-1.438-4.094 0-1.854.646-3.219 1.938-4.094 1.302-.885 3.26-1.374 5.875-1.468l3.031-.094v-.766c0-1.77-.906-2.656-2.719-2.656-1.396 0-3.036.422-4.922 1.266l-1.578-3.219c2.011-1.052 4.24-1.578 6.688-1.578 2.344 0 4.14.51 5.39 1.531s1.875 2.573 1.875 4.656V89h-3.328zm-1.406-8.094l-1.844.063c-1.385.041-2.416.291-3.093.75-.678.458-1.016 1.156-1.016 2.094 0 1.343.771 2.015 2.312 2.015 1.105 0 1.985-.318 2.641-.953.667-.635 1-1.48 1-2.531v-1.438zm19.313-5.797h-4.126V89h-4.765V75.11h-2.625v-2.297l2.625-1.282V70.25c0-1.99.489-3.443 1.469-4.36.979-.916 2.546-1.374 4.703-1.374 1.646 0 3.109.244 4.39.734l-1.218 3.5c-.959-.302-1.844-.453-2.657-.453-.677 0-1.166.203-1.468.61-.302.395-.454.906-.454 1.53v1.094h4.126v3.578zm9.984-.515c-1.011 0-1.802.323-2.375.969-.573.635-.901 1.541-.985 2.718h6.688c-.021-1.177-.328-2.083-.922-2.719-.594-.645-1.396-.968-2.406-.968zm.672 14.719c-2.813 0-5.011-.776-6.594-2.329-1.583-1.552-2.375-3.75-2.375-6.593 0-2.928.729-5.188 2.187-6.782 1.469-1.604 3.495-2.406 6.079-2.406 2.468 0 4.39.703 5.765 2.11 1.375 1.406 2.063 3.349 2.063 5.828v2.312h-11.266c.052 1.354.453 2.412 1.203 3.172.75.76 1.802 1.14 3.156 1.14 1.053 0 2.047-.109 2.985-.328a14.916 14.916 0 002.937-1.046v3.687c-.833.417-1.724.724-2.672.922-.947.208-2.104.313-3.468.313zm15.672-3.672c-.542 2.104-1.459 4.599-2.75 7.484h-3.438a90.95 90.95 0 001.578-7.844h4.375l.235.36zm18.14-8.735H623c1.49 0 2.604-.291 3.344-.875.739-.594 1.109-1.453 1.109-2.578 0-1.135-.312-1.974-.937-2.516-.615-.541-1.584-.812-2.907-.812h-2.203v6.781zm10.938-3.625c0 2.459-.771 4.339-2.313 5.64-1.531 1.303-3.713 1.954-6.547 1.954h-2.078V89h-4.844V66.156h7.297c2.771 0 4.875.6 6.313 1.797 1.448 1.188 2.172 2.964 2.172 5.328zm7.734 6.953c0 1.73.281 3.037.844 3.922.573.886 1.5 1.328 2.781 1.328 1.271 0 2.182-.437 2.735-1.312.562-.885.843-2.198.843-3.938 0-1.729-.281-3.026-.843-3.89-.563-.865-1.485-1.297-2.766-1.297-1.271 0-2.188.432-2.75 1.297-.563.854-.844 2.15-.844 3.89zm12.078 0c0 2.844-.75 5.068-2.25 6.672s-3.588 2.406-6.265 2.406c-1.677 0-3.157-.364-4.438-1.093-1.281-.74-2.265-1.797-2.953-3.172-.688-1.375-1.031-2.98-1.031-4.813 0-2.854.745-5.072 2.234-6.656 1.49-1.583 3.583-2.375 6.281-2.375 1.677 0 3.157.365 4.438 1.094 1.281.729 2.266 1.776 2.953 3.14.687 1.365 1.031 2.964 1.031 4.797zm7.735 0c0 1.73.281 3.037.843 3.922.573.886 1.5 1.328 2.782 1.328 1.27 0 2.182-.437 2.734-1.312.562-.885.844-2.198.844-3.938 0-1.729-.282-3.026-.844-3.89-.562-.865-1.484-1.297-2.766-1.297-1.27 0-2.187.432-2.75 1.297-.562.854-.843 2.15-.843 3.89zm12.078 0c0 2.844-.75 5.068-2.25 6.672s-3.589 2.406-6.266 2.406c-1.677 0-3.156-.364-4.437-1.093-1.282-.74-2.266-1.797-2.954-3.172-.687-1.375-1.031-2.98-1.031-4.813 0-2.854.745-5.072 2.235-6.656 1.489-1.583 3.583-2.375 6.281-2.375 1.677 0 3.156.365 4.437 1.094 1.282.729 2.266 1.776 2.954 3.14.687 1.365 1.031 2.964 1.031 4.797zM680.672 89h-4.766V64.687h4.766V89z" fill="#fff"/></g></g><defs><clipPath id="clip0_187_1987"><path fill="#fff" d="M0 0h1073v125H0z"/></clipPath><clipPath id="clip1_187_1987"><path fill="#fff" d="M0 0h1073v125H0z"/></clipPath></defs></svg>
